svg/furkot/freepik/passthru.svg

<svg viewBox="0 0 512 512" xmlns="http://www.w3.org/2000/svg"><path d="m370.601 326.471c28.236-48.608 21.586-112.063-20.012-153.649-41.575-41.587-105.041-48.243-153.643-20.006l-139.335-139.346-45.998 46.015 139.324 139.324c-28.231 48.612-21.581 112.078 20.006 153.654 41.597 41.603 105.052 48.242 153.66 20.006l139.901 139.912 45.998-46.014zm-52.861-6.852c-31.418 31.422-82.514 31.422-113.937 0-31.417-31.417-31.406-82.525.006-113.942 31.411-31.417 82.519-31.417 113.931 0 31.417 31.406 31.417 82.525 0 113.942z"/></svg>

<svg xmlns="http://www.w3.org/2000/svg" viewBox="0 0 512 512"><path d="M370.601 326.471C398.837 277.863 392.187 214.408 350.589 172.822 309.014 131.235 245.548 124.579 196.946 152.816L57.611 13.47 11.613 59.485 150.937 198.809C122.706 247.421 129.356 310.887 170.943 352.463 212.54 394.066 275.995 400.705 324.603 372.469L464.504 512.381 510.502 466.367 370.601 326.471ZM317.74 319.619C286.322 351.041 235.226 351.041 203.803 319.619 172.386 288.202 172.397 237.094 203.809 205.677 235.22 174.26 286.328 174.26 317.74 205.677 349.157 237.083 349.157 288.202 317.74 319.619Z"/></svg>
